X:472
T: HOER LIEBCHEN WAS ICH SAGEN WILL
N: E1729
O: Europa, Mitteleuropa, Deutschland; Frankreich, Elsass, Ergenau
R: Scherz - Lied, Soldaten - Lied
M: 2/4
L: 1/16
K: E
B,2 | E2E2EFGA | B2B2B4 |
E2E2EFGA | B2B,2B,4 |
E2E2EFGA | B2B2B4 |
c3dfedc | B2B2B4 |
A3BdcBA | G3BeBGE |
F2c2B2D2 | E4z2

@@@ Tune index: 5156
